images/preferences/11.svg

<svg width="108" height="67" viewBox="0 0 108 67" fill="none" xmlns="http://www.w3.org/2000/svg">
<path d="M80 34.7569C80 56.0736 63.184 66.6133 41.5094 66.6133C19.8349 66.6133 0 50.075 0 28.7584C0 7.44175 10.566 0.613644 20.3774 0.613281C29.7626 0.613281 38.001 9.40267 46.0377 13.2316C56.5613 18.2453 80 22.6706 80 34.7569Z" fill="url(#paint0_linear)"/>
<path d="M27.1323 19.9267L27.1321 19.9267C26.38 20.0269 25.8 20.6291 25.8 21.3624V31.4859C25.7925 33.5218 27.1316 35.3428 29.1566 36.0852C29.1566 36.0852 29.1567 36.0853 29.1568 36.0853L33.5285 37.7094L33.5289 37.7095C33.7113 37.7769 33.9051 37.8109 34.1002 37.8109H34.448C35.3056 39.953 37.1477 41.6274 39.4696 42.3809C43.7206 43.7605 48.3859 41.7302 49.9535 37.8109H85.7481C86.6056 39.9529 88.4472 41.6274 90.7697 42.3809C95.0207 43.7605 99.686 41.7302 101.254 37.8109H105.65C106.491 37.8109 107.2 37.1762 107.2 36.3608V28.9391V28.9388C107.197 26.8186 105.97 24.8693 103.997 23.8217L103.996 23.8214C99.2746 21.3296 93.9472 19.9884 88.5148 19.9245L83.9282 17.608L83.9281 17.608C77.1761 14.204 69.6125 12.4184 61.9265 12.4133L61.9264 12.4133L60.3336 12.4133L60.3334 12.4133V12.6133C53.8465 12.6067 47.4338 13.8853 41.5254 16.363L27.1323 19.9267ZM27.1323 19.9267L36.2639 18.7194L27.1323 19.9267ZM88.3002 35.1112V35.1112C88.2997 32.8417 90.0257 30.8678 92.4561 30.4081C95.2845 29.873 98.0241 31.5646 98.5957 34.152C99.1655 36.734 97.3693 39.2773 94.5439 39.8118C91.7156 40.347 88.976 38.6554 88.4049 36.0681L88.3002 35.1112ZM88.3002 35.1112C88.3002 35.4323 88.3354 35.753 88.4048 36.068L88.3002 35.1112ZM28.6999 31.4866V26.5622H28.8999M28.6999 31.4866L32.75 26.3622H32.55H28.8999V26.5622M28.6999 31.4866C28.6966 32.4076 29.3031 33.2366 30.2281 33.5748M28.6999 31.4866L30.2281 33.5748M28.8999 26.5622H32.75H32.95V26.3622V23.862V23.662H32.75H28.8999L34.2755 33.5575L34.0809 33.5114C34.0608 33.5959 34.0455 33.6914 34.0314 33.7794C34.0253 33.817 34.0195 33.8532 34.0137 33.8866L34.0135 33.8873C34.0082 33.9184 34.0021 33.9515 33.9957 33.9859C33.9789 34.0771 33.9604 34.1776 33.9498 34.2742L33.9497 34.275C33.941 34.3574 33.9361 34.4527 33.9318 34.536C33.9295 34.5809 33.9274 34.6223 33.9249 34.6565C33.9232 34.68 33.9209 34.7059 33.9184 34.7336M28.8999 26.5622L28.8999 31.4866L28.8999 31.4873C28.8969 32.3166 29.4436 33.0751 30.2968 33.387L30.2978 33.3874L33.9184 34.7336M33.9184 34.7336L34.1126 34.8058L30.2281 33.5748M33.9184 34.7336C33.9178 34.7397 33.9172 34.7458 33.9166 34.752C33.9111 34.811 33.905 34.8764 33.9021 34.9409L30.2281 33.5748M35.2884 31.2089L35.1178 31.1046C35.1178 31.1046 35.1177 31.1047 35.1177 31.1048C35.0922 31.1463 35.0646 31.1867 35.0329 31.2329L35.0265 31.2422C34.993 31.2909 34.9559 31.3455 34.9203 31.4054L34.92 31.406C34.8753 31.4819 34.8316 31.5671 34.7924 31.6436C34.774 31.6794 34.7566 31.7134 34.7405 31.7436C34.7275 31.768 34.7125 31.7949 34.6965 31.8236C34.6534 31.9008 34.6029 31.9911 34.5652 32.0809L34.565 32.0812C34.5401 32.1408 34.5169 32.2009 34.4948 32.2585L34.4886 32.2747C34.4685 32.3273 34.4492 32.3775 34.4291 32.4269L34.4287 32.4279C34.417 32.4571 34.4045 32.4876 34.3916 32.5191C34.3577 32.6014 34.3213 32.6899 34.2908 32.7781L34.4798 32.8435L38.7479 28.1126C38.7114 28.1294 38.675 28.1461 38.6385 28.1622C38.6058 28.1767 38.5709 28.1918 38.5351 28.2074C38.4424 28.2476 38.3437 28.2904 38.2613 28.331M35.2884 31.2089C35.3488 31.1087 35.423 30.9948 35.4999 30.8926C35.5491 30.8274 35.5958 30.771 35.6424 30.7148C35.6691 30.6825 35.6958 30.6502 35.7229 30.6164C35.7376 30.5981 35.7527 30.5791 35.7682 30.5597C35.8305 30.4812 35.8982 30.396 35.9674 30.3189C36.0511 30.2256 36.1297 30.1519 36.2111 30.0755L36.2184 30.0687C36.2595 30.0302 36.3029 29.9849 36.3476 29.9384C36.3936 29.8904 36.441 29.8411 36.4881 29.7966C36.5536 29.7353 36.6182 29.683 36.683 29.6306C36.7106 29.6082 36.7383 29.5858 36.7661 29.5627C36.8039 29.5314 36.8428 29.4977 36.8825 29.4634C36.9409 29.4129 37.001 29.3609 37.0622 29.3124C37.1298 29.2589 37.1983 29.2134 37.2666 29.1682C37.3015 29.145 37.3363 29.1219 37.3709 29.0978C37.3995 29.078 37.4281 29.0577 37.4569 29.0374C37.5312 28.9848 37.6063 28.9318 37.684 28.8837C37.7383 28.8505 37.7959 28.8193 37.8545 28.7875C37.9126 28.756 37.9718 28.7239 38.0295 28.6889C38.146 28.6187 38.2404 28.5638 38.3498 28.5104M35.2884 31.2089C35.2601 31.2552 35.2296 31.2997 35.1986 31.3448C35.1628 31.397 35.1265 31.4499 35.0923 31.5075M35.2884 31.2089L35.0923 31.5075M38.3498 28.5104L38.2613 28.331M38.3498 28.5104C38.4275 28.4721 38.5188 28.4325 38.6096 28.3931C38.6466 28.377 38.6835 28.361 38.7194 28.3451C38.7617 28.3264 38.8008 28.3084 38.8386 28.2911C38.9118 28.2574 38.9799 28.2261 39.0556 28.1966L38.2613 28.331M38.3498 28.5104L38.262 28.3307C38.2617 28.3308 38.2615 28.3309 38.2613 28.331M37.5153 21.1722L37.6152 21.3454C37.6153 21.3454 37.6153 21.3454 37.6154 21.3453C38.953 20.5742 40.3351 19.8716 41.7557 19.2407L45.1598 22.3924L28.6999 22.4456M37.5153 21.1722C37.356 21.2642 37.1781 21.3247 36.9918 21.3496L28.6999 22.4456M37.5153 21.1722C38.8969 20.3757 40.3256 19.652 41.7951 19.0046L37.5153 21.1722ZM28.6999 22.4456H28.8999V22.6209L28.7261 22.6439L28.6999 22.4456ZM35.0923 31.5075C35.0505 31.5785 35.012 31.6537 34.9743 31.7271C34.9552 31.7646 34.9362 31.8016 34.9171 31.8375C34.9002 31.8692 34.8827 31.9005 34.8652 31.9319C34.824 32.0057 34.7827 32.0796 34.7495 32.1584C34.7236 32.2204 34.6993 32.2838 34.6751 32.3471C34.6551 32.3991 34.6352 32.4511 34.6144 32.5022L35.0923 31.5075ZM43.2443 39.8118C40.4155 40.347 37.6759 38.6554 37.1048 36.0681L43.2443 39.8118ZM43.2443 39.8118C46.0692 39.2773 47.8655 36.734 47.2956 34.1519M43.2443 39.8118L47.2956 34.1519M47.2956 34.1519C46.7245 31.5646 43.9844 29.873 41.156 30.4081M47.2956 34.1519L41.156 30.4081M41.156 30.4081C38.7257 30.8678 36.9996 32.8417 37.0001 35.1112M41.156 30.4081L37.0001 35.1112M37.0001 35.1112C37.0001 35.4323 37.0353 35.753 37.1047 36.068L37.0001 35.1112ZM46.887 19.9128H60.9002V15.313H60.3361L60.3359 15.313C55.0289 15.3075 49.7694 16.2212 44.8276 18.006L46.887 19.9128ZM64.0001 34.9112H85.2031C85.3175 30.7379 89.0023 27.4118 93.5 27.4118C97.9977 27.4118 101.683 30.7379 101.797 34.9112H104.1L104.1 28.9394C104.1 28.9394 104.1 28.9393 104.1 28.9393C104.099 27.8738 103.482 26.8817 102.469 26.3452C98.0929 24.0319 93.1406 22.814 88.1002 22.8124C88.1002 22.8124 88.1002 22.8124 88.1002 22.8124H64.0001V34.9112ZM64.0001 19.9128H81.9565C76.4025 17.2053 70.2734 15.6561 64.0001 15.3765V19.9128Z" fill="white" stroke="white" stroke-width="0.4"/>
<defs>
<linearGradient id="paint0_linear" x1="0" y1="0.613281" x2="80" y2="76.6133" gradientUnits="userSpaceOnUse">
<stop stop-color="#F09642" stop-opacity="0.78"/>
<stop offset="1" stop-color="#F0D542" stop-opacity="0.79"/>
</linearGradient>
</defs>
</svg>

<svg width="108" height="67" fill="none" xmlns="http://www.w3.org/2000/svg"><path d="M80 34.757c0 21.317-16.816 31.856-38.49 31.856C19.834 66.613 0 50.075 0 28.758 0 7.442 10.566.614 20.377.613c9.386 0 17.624 8.79 25.66 12.619C56.562 18.245 80 22.67 80 34.757Z" fill="url(#a)"/><path d="M27.132 19.927c-.752.1-1.332.702-1.332 1.435v10.124c-.008 2.036 1.332 3.857 3.357 4.6l4.372 1.623c.182.068.376.102.571.102h.348c.858 2.142 2.7 3.816 5.022 4.57 4.25 1.38 8.916-.65 10.483-4.57h35.795c.858 2.142 2.7 3.816 5.022 4.57 4.25 1.38 8.916-.65 10.484-4.57h4.396c.841 0 1.55-.635 1.55-1.45v-7.422c-.003-2.12-1.23-4.07-3.203-5.117h-.001c-4.721-2.492-10.049-3.834-15.481-3.898l-4.587-2.316c-6.752-3.404-14.316-5.19-22.002-5.195h-1.592v.2c-6.488-.006-12.9 1.272-18.809 3.75l-14.393 3.564Zm0 0 9.132-1.208-9.132 1.208ZM88.3 35.11c0-2.27 1.726-4.243 4.156-4.703 2.828-.535 5.568 1.157 6.14 3.744.57 2.582-1.227 5.125-4.052 5.66-2.828.535-5.568-1.157-6.14-3.744l-.104-.957Zm0 0c0 .321.035.642.105.957l-.105-.957Zm-59.6-3.624v-4.925h.2m-.2 4.925 4.05-5.125H28.9v.2m-.2 4.925c-.003.92.603 1.75 1.528 2.088M28.7 31.487l1.528 2.088M28.9 26.562h4.05V23.662H28.9l5.376 9.895-.195-.046c-.02.085-.036.18-.05.268l-.017.108a6.739 6.739 0 0 1-.018.099 4.075 4.075 0 0 0-.046.288v.001c-.009.082-.014.178-.018.261l-.007.12-.007.078M28.9 26.562v4.925c-.003.83.544 1.588 1.397 1.9l3.621 1.347m0 0 .195.072-3.885-1.231m3.69 1.159-.001.018c-.006.059-.012.124-.015.189l-3.674-1.366m5.06-2.366-.17-.104a3.051 3.051 0 0 1-.085.128l-.007.01c-.033.048-.07.103-.106.162v.001a4.728 4.728 0 0 0-.128.238c-.018.035-.035.07-.052.1l-.044.08c-.043.077-.093.167-.13.257h-.001c-.025.06-.048.12-.07.177l-.006.017-.06.152-.037.092a4.85 4.85 0 0 0-.101.26l.189.064 4.268-4.73a7.544 7.544 0 0 1-.11.05l-.103.044c-.093.04-.191.083-.274.124m-2.973 2.878a3.83 3.83 0 0 1 .354-.494c.027-.032.054-.065.08-.099l.046-.056c.063-.079.13-.164.2-.241.083-.093.162-.167.243-.243l.007-.007c.041-.039.085-.084.13-.13.046-.049.093-.098.14-.142.066-.062.13-.114.195-.166l.083-.068.117-.1c.058-.05.118-.102.18-.15.067-.054.135-.1.204-.145l.104-.07.086-.06c.074-.053.15-.106.227-.154.054-.034.112-.065.17-.096.059-.032.118-.064.175-.1.117-.07.211-.124.32-.178m-3.06 2.699c-.029.046-.06.09-.09.136-.036.052-.072.105-.107.163m.196-.3-.196.3m3.258-2.998-.089-.179m.089.18c.078-.039.169-.078.26-.118l.11-.048.119-.054c.073-.034.14-.065.217-.094l-.795.134m.089.18-.088-.18m-.747-7.159.1.173a44.255 44.255 0 0 1 4.14-2.104l3.405 3.151-16.46.054m8.815-1.274c-.159.092-.337.153-.523.178L28.7 22.446m8.815-1.274a44.447 44.447 0 0 1 4.28-2.167l-4.28 2.167ZM28.7 22.446h.2v.175l-.174.023-.026-.198Zm6.392 9.061c-.041.071-.08.147-.118.22a7 7 0 0 1-.057.11l-.052.095c-.041.074-.082.148-.116.226l-.074.19-.06.154.477-.995Zm8.152 8.305c-2.828.535-5.568-1.157-6.14-3.744l6.14 3.744Zm0 0c2.825-.535 4.621-3.078 4.052-5.66m-4.052 5.66 4.052-5.66m0 0c-.572-2.587-3.312-4.279-6.14-3.744m6.14 3.744-6.14-3.744m0 0c-2.43.46-4.156 2.434-4.156 4.703m4.156-4.703L37 35.111m0 0c0 .321.035.642.105.957L37 35.111Zm9.887-15.198H60.9v-4.6h-.564a45.56 45.56 0 0 0-15.508 2.693l2.059 1.907ZM64 34.91h21.203c.114-4.173 3.8-7.5 8.297-7.5 4.498 0 8.183 3.327 8.297 7.5h2.303V28.94c-.001-1.065-.618-2.057-1.631-2.594-4.376-2.313-9.328-3.531-14.369-3.533H64v12.1Zm0-14.998h17.957C76.403 17.205 70.273 15.656 64 15.376v4.537Z" fill="#fff" stroke="#fff" stroke-width=".4"/><defs><linearGradient id="a" x1="0" y1=".613" x2="80" y2="76.613" gradientUnits="userSpaceOnUse"><stop stop-color="#F09642" stop-opacity=".78"/><stop offset="1" stop-color="#F0D542" stop-opacity=".79"/></linearGradient></defs></svg>
